!!!OTL: Prisoner's Song
!!!ONM: 141.
**kern
*clefG2
*k[b-e-a-]
*E-:
*M2/4
*MM84
{8e-
8e-
=1
4g
8g
8g
=2
4g
8f
8e-
=3
8f
4.e-
=4
4r}
{8e-
8g
=5
4b-
8b-
8b-
=6
4b-
8cc
8b-
=7
2f
=8
4r}
{(8b-
8a-)
=9
4g
8g
8f
=10
4e-
8f
8g
=11
8a-
4.a-
=12
4r}
{8g
8g
=13
4g
8g
8g
=14
8f
4e-
8d
=15
2e-
=16
2r}
=17||
{4B-
8.g
16g
=18
2g
=19
4B-
8.g
16g
=20
4.g
8r}
=21
{8B-
8B-
8e-
8g
=22
4b-
8b-
8g
=23
2f
=24
4r}
{8b-
8a-
=25
8g
8g
8g
8f
=26
4e-
8f
8g
=27
8a-
4.a-
=28
4r
8r}
{8g
=29
4g
8g
8g
=30
8g
8f
8e-
8d
=31
2e-}
==
*-
!!!CNT: Folksongs of Maritime Canada
!!!MRD: 1928///-1932///
!!!OCL: Helen Creighton
!!!YOR: Songs and Ballads from Nova Scotia
!!!PPR: J.M. Dent & Sons, Limited
!!!PPP: Toronto, Canada
!!!PDT: 1932///
!!!reprint: Dover Publications, 1992: ISBN 0-486-21703-5
!!!ENC1: Craig Stuart Sapp (music and bibliographic data)                       
!!!ENC2: Marcus Pearce (phrase markings and key designations)                   
!!!ENC3: Darrell Conklin (phrase markings and key designations)   
!!!END: 2002/04/10/
!!!EEV: 2004/06/05
!!!MPN: Mr. Edward Hartley
!!!PPG: 309
!!!EFL: 143/152
!!!ARE: Canada; Nova Scotia
!!!verses: 1
!!!VTS: 3893256240
